public/assets/images/testimonials/quote.svg

<svg xmlns="http://www.w3.org/2000/svg" width="245" height="279" fill="none" viewBox="0 0 245 279"><path fill="#7472ff" d="M123.758 230.425a2 2 0 0 1-2.829 0l-40.737-40.737C50.377 159.873 0 180.949 0 223.101v53.003a2 2 0 0 0 2 2h240.687a2 2 0 0 0 2-2V114.325c0-1.782-2.154-2.675-3.414-1.415zm-2.829-182.746a2 2 0 0 1 2.829 0l40.737 40.737c29.815 29.815 80.192 8.74 80.192-33.413V2a2 2 0 0 0-2-2H2a2 2 0 0 0-2 2v161.779c0 1.782 2.154 2.674 3.414 1.415z"/><path fill="#fff" d="m92.233 149.786 9.337-21.536v-12.214c0-1.447.164-2.893.655-4.34.328-.964.983-1.767 1.802-2.41.983-.643 2.13-.965 3.276-1.125 1.475-.161 2.949-.161 4.423-.161s2.949 0 4.423.321c1.147.161 2.13.483 3.113 1.125.819.643 1.31 1.447 1.638 2.411q.492 2.17.491 4.339c0 1.768 0 3.697-.327 5.465a25 25 0 0 1-.983 4.821c-.328 1.447-.983 3.054-1.638 4.339-.819 1.447-1.638 2.893-2.621 4.34l-10.157 14.946c-.327.482-.655.964-1.146 1.286l-1.475.964c-.655.322-1.474.482-2.129.482-1.147.161-2.13.161-3.277.161-1.146 0-2.13 0-3.276-.161-.655 0-1.31-.321-1.966-.643-.327-.16-.655-.642-.655-1.125.164-.321.164-.803.492-1.285m40.789-21.536v-12.214c0-1.447.164-2.893.655-4.34.328-.964.983-1.928 1.802-2.41.983-.643 1.966-.965 3.113-1.125 1.474-.161 3.112-.161 4.587-.161s2.948 0 4.423.321c1.146.161 2.129.483 2.948 1.125.819.643 1.311 1.447 1.638 2.411q.738 2.17.492 4.339c0 1.768 0 3.697-.328 5.465a25 25 0 0 1-.983 4.821c-.327 1.447-.983 3.054-1.638 4.339-.819 1.447-1.638 2.893-2.621 4.34l-10.32 14.946c-.328.482-.655.964-1.147 1.286l-1.474.964c-.655.322-1.474.482-2.13.482-.983.161-2.129.161-3.112.161-1.147 0-2.13 0-3.276-.161-.656 0-1.311-.321-1.966-.643-.328-.16-.655-.642-.655-1.125 0-.482.163-.964.327-1.446z"/></svg>

<svg width="245" height="279" viewBox="0 0 245 279" fill="none" xmlns="http://www.w3.org/2000/svg">
<path d="M123.758 230.425C122.977 231.206 121.71 231.206 120.929 230.425L80.1915 189.688C50.3767 159.873 0 180.949 0 223.101V276.104C0 277.208 0.895431 278.104 2 278.104H242.687C243.791 278.104 244.687 277.208 244.687 276.104V114.325C244.687 112.543 242.533 111.65 241.273 112.91L123.758 230.425Z" fill="#7472FF"/>
<path d="M120.929 47.6785C121.71 46.8975 122.977 46.8975 123.758 47.6785L164.495 88.4163C194.31 118.231 244.687 97.1551 244.687 55.0031V2C244.687 0.895428 243.791 0 242.687 0H2C0.895428 0 0 0.895431 0 2V163.779C0 165.561 2.15428 166.453 3.41421 165.194L120.929 47.6785Z" fill="#7472FF"/>
<path d="M92.2326 149.786L101.57 128.25V116.036C101.57 114.589 101.734 113.143 102.225 111.696C102.553 110.732 103.208 109.929 104.027 109.286C105.01 108.643 106.157 108.321 107.303 108.161C108.778 108 110.252 108 111.726 108C113.201 108 114.675 108 116.149 108.321C117.296 108.482 118.279 108.804 119.262 109.446C120.081 110.089 120.572 110.893 120.9 111.857C121.228 113.304 121.391 114.75 121.391 116.196C121.391 117.964 121.391 119.893 121.064 121.661C120.9 123.268 120.572 124.875 120.081 126.482C119.753 127.929 119.098 129.536 118.443 130.821C117.624 132.268 116.805 133.714 115.822 135.161L105.665 150.107C105.338 150.589 105.01 151.071 104.519 151.393C104.027 151.714 103.536 152.036 103.044 152.357C102.389 152.679 101.57 152.839 100.915 152.839C99.768 153 98.7851 153 97.6384 153C96.4917 153 95.5088 153 94.3622 152.839C93.7069 152.839 93.0516 152.518 92.3964 152.196C92.0688 152.036 91.7411 151.554 91.7411 151.071C91.905 150.75 91.9049 150.268 92.2326 149.786Z" fill="white"/>
<path d="M133.022 128.25V116.036C133.022 114.589 133.186 113.143 133.677 111.696C134.005 110.732 134.66 109.768 135.479 109.286C136.462 108.643 137.445 108.321 138.592 108.161C140.066 108 141.704 108 143.179 108C144.653 108 146.127 108 147.602 108.321C148.748 108.482 149.731 108.804 150.55 109.446C151.369 110.089 151.861 110.893 152.188 111.857C152.68 113.304 152.844 114.75 152.68 116.196C152.68 117.964 152.68 119.893 152.352 121.661C152.188 123.268 151.861 124.875 151.369 126.482C151.042 127.929 150.386 129.536 149.731 130.821C148.912 132.268 148.093 133.714 147.11 135.161L136.79 150.107C136.462 150.589 136.135 151.071 135.643 151.393C135.152 151.714 134.66 152.036 134.169 152.357C133.514 152.679 132.695 152.839 132.039 152.839C131.056 153 129.91 153 128.927 153C127.78 153 126.797 153 125.651 152.839C124.995 152.839 124.34 152.518 123.685 152.196C123.357 152.036 123.03 151.554 123.03 151.071C123.03 150.589 123.193 150.107 123.357 149.625L133.022 128.25Z" fill="white"/>
</svg>
